img/eat-and-earn.svg

<svg fill="none" height="541" viewBox="0 0 73 541" width="73" xmlns="http://www.w3.org/2000/svg"><path d="m37.2168 535.895h29.8594v-36.272h3.9238v40.674h-69.0498l-.00001-39.573h3.92383v35.171h27.41898v-32.348h3.9238zm33.7832-105.01v4.689l-22.0117 8.661v31.391l22.0117 8.565v4.738l-69.43262-27.467v-2.871zm-61.77637 29.333 35.93657 13.925v-28.424l-35.93657 14.116zm-7.27344-30.984v-49.382h3.92383v22.49h65.12598v4.402l-65.12598-.048v22.538zm68.95411-143.793-11.6279 11.293c3.9876 3.892 7.1139 7.784 9.3789 11.676 2.2649 3.86 3.3974 7.816 3.3974 11.867 0 5.36-1.3558 9.523-4.0674 12.49-2.7434 2.966-6.6035 4.45-11.58 4.45-3.3177 0-6.6993-1.228-10.1446-3.685-3.4453-2.456-7.066-6.747-10.8623-12.872-3.2858 3.382-6.3642 5.998-9.2353 7.848-2.8711 1.818-5.8379 2.727-8.9004 2.727-3.222 0-6.0612-.67-8.51759-2.009-2.48828-1.372-4.4183-3.27-5.79004-5.695-1.37175-2.456-2.057619-5.279-2.057619-8.469 0-3.254.685869-6.141 2.057619-8.662 1.37174-2.52 3.30176-4.482 5.79004-5.885 2.45639-1.404 5.27959-2.106 8.46969-2.106 2.9668 0 5.5508.702 7.752 2.106 2.1693 1.371 4.0195 3.094 5.5508 5.168 1.5312 2.041 3.206 4.673 5.0244 7.895l.5742 1.005 1.3877-1.436c2.1693-2.296 3.876-4.067 5.1201-5.311l11.1016-11.006c-3.9877-3.605-8.1348-6.891-12.4414-9.857l2.7754-2.967c5.3274 4.051 9.4586 7.417 12.3935 10.097.0638-.064 3.3975-3.35 10.001-9.858l4.5459-4.402zm-53.6895 41.679c2.6478 0 5.2318-.813 7.752-2.44 2.4883-1.659 5.3115-4.1 8.4697-7.322l-.6221-1.148c-1.7864-3.254-3.4293-5.854-4.9287-7.8-1.4993-1.946-3.1103-3.413-4.833-4.402-1.7545-.989-3.7643-1.484-6.0293-1.484-2.4564 0-4.6416.543-6.5556 1.627-1.9141 1.053-3.3975 2.536-4.45023 4.451-1.05274 1.914-1.5791 4.083-1.5791 6.507 0 2.361.54231 4.451 1.62695 6.269 1.05273 1.818 2.55208 3.238 4.49808 4.259 1.9459.989 4.1631 1.483 6.6513 1.483zm51.1534-6.651c0-3.222-1.0528-6.604-3.1582-10.145-2.1374-3.573-5.0404-7.193-8.709-10.862l-11.1973 10.91c-1.3398 1.308-3.3496 3.398-6.0293 6.269-.2871.255-.6859.67-1.1963 1.244 6.2845 9.985 12.4255 14.977 18.4229 14.977 3.7324 0 6.6513-1.1 8.7568-3.301 2.0736-2.202 3.1104-5.232 3.1104-9.092zm-31.1514-88.477h29.8594v-36.271h3.9238v40.674h-69.04982v-39.574h3.92383v35.171h27.41899v-32.347h3.9238zm33.7832-105.01v4.69l-22.0117 8.661v31.391l22.0117 8.565v4.737l-69.43263-27.466v-2.872zm-61.77638 29.333 35.93648 13.925v-28.424l-35.93648 14.117zm61.77638-90.7974v5.1679l-28.041 17.3223c.1595 1.3718.2392 2.6956.2392 3.9717v17.5615h27.8018v4.402h-69.04982v-21.5328c0-4.6576.84537-8.725 2.53613-12.2022 1.69075-3.4772 4.11523-6.1409 7.27339-7.9912 3.1263-1.8822 6.795-2.8232 11.0059-2.8232 4.8171 0 8.9004 1.2441 12.25 3.7324 3.3496 2.4564 5.6943 5.9017 7.0342 10.3359zm-31.5821 26.6054c0-3.7005-.6699-6.9225-2.0097-9.666-1.3399-2.7754-3.238-4.9127-5.6944-6.4121-2.4882-1.4993-5.4072-2.249-8.7568-2.249-3.4772 0-6.5078.7975-9.0918 2.3926-2.6159 1.5631-4.62564 3.7962-6.02928 6.6992-1.40365 2.903-2.10547 6.2845-2.10547 10.1445v16.5568h33.68745zm23.6387-87.01754-61.10643.00001v-4.402347l69.04983-.000003v4.4502l-61.20217 40.57808v.335h61.20217v4.4023h-69.04983v-4.3544l61.10643-40.62602z" fill="#292b31"/></svg>

<svg width="73" height="541" viewBox="0 0 73 541" fill="none" xmlns="http://www.w3.org/2000/svg">
<path d="M37.2168 535.895L67.0762 535.895L67.0762 499.623L71 499.623L71 540.297L1.9502 540.297L1.95019 500.724L5.87402 500.724L5.87402 535.895L33.293 535.895L33.293 503.547L37.2168 503.547L37.2168 535.895ZM71 430.885L71 435.574L48.9883 444.235L48.9883 475.626L71 484.191L71 488.929L1.56738 461.462L1.56738 458.591L71 430.885ZM9.22363 460.218L45.1602 474.143L45.1602 445.719L9.22363 459.835L9.22363 460.218ZM1.95019 429.234L1.95019 379.852L5.87402 379.852L5.87402 402.342L71 402.342L71 406.744L5.87402 406.696L5.87402 429.234L1.95019 429.234ZM70.9043 285.441L59.2764 296.734C63.264 300.626 66.3903 304.518 68.6553 308.41C70.9202 312.27 72.0527 316.226 72.0527 320.277C72.0527 325.637 70.6969 329.8 67.9853 332.767C65.2419 335.733 61.3818 337.217 56.4053 337.217C53.0876 337.217 49.706 335.989 46.2607 333.532C42.8154 331.076 39.1947 326.785 35.3984 320.66C32.1126 324.042 29.0342 326.658 26.1631 328.508C23.292 330.326 20.3252 331.235 17.2627 331.235C14.0407 331.235 11.2015 330.565 8.74511 329.226C6.25683 327.854 4.32681 325.956 2.95507 323.531C1.58332 321.075 0.897451 318.252 0.897451 315.062C0.897451 311.808 1.58332 308.921 2.95507 306.4C4.32681 303.88 6.25683 301.918 8.74511 300.515C11.2015 299.111 14.0247 298.409 17.2148 298.409C20.1816 298.409 22.7656 299.111 24.9668 300.515C27.1361 301.886 28.9863 303.609 30.5176 305.683C32.0488 307.724 33.7236 310.356 35.542 313.578L36.1162 314.583L37.5039 313.147C39.6732 310.851 41.3799 309.08 42.624 307.836L53.7256 296.83C49.7379 293.225 45.5908 289.939 41.2842 286.973L44.0596 284.006C49.387 288.057 53.5182 291.423 56.4531 294.103C56.5169 294.039 59.8506 290.753 66.4541 284.245L71 279.843L70.9043 285.441ZM17.2148 327.12C19.8626 327.12 22.4466 326.307 24.9668 324.68C27.4551 323.021 30.2783 320.58 33.4365 317.358L32.8144 316.21C31.028 312.956 29.3851 310.356 27.8857 308.41C26.3864 306.464 24.7754 304.997 23.0527 304.008C21.2982 303.019 19.2884 302.524 17.0234 302.524C14.567 302.524 12.3818 303.067 10.4678 304.151C8.5537 305.204 7.0703 306.687 6.01757 308.602C4.96483 310.516 4.43847 312.685 4.43847 315.109C4.43847 317.47 4.98078 319.56 6.06542 321.378C7.11815 323.196 8.6175 324.616 10.5635 325.637C12.5094 326.626 14.7266 327.12 17.2148 327.12ZM68.3682 320.469C68.3682 317.247 67.3154 313.865 65.21 310.324C63.0726 306.751 60.1696 303.131 56.501 299.462L45.3037 310.372C43.9639 311.68 41.9541 313.77 39.2744 316.641C38.9873 316.896 38.5885 317.311 38.0781 317.885C44.3626 327.87 50.5036 332.862 56.501 332.862C60.2334 332.862 63.1523 331.762 65.2578 329.561C67.3314 327.359 68.3682 324.329 68.3682 320.469ZM37.2168 231.992L67.0762 231.992L67.0762 195.721L71 195.721L71 236.395L1.95018 236.395L1.95018 196.821L5.87401 196.821L5.87401 231.992L33.293 231.992L33.293 199.645L37.2168 199.645L37.2168 231.992ZM71 126.982L71 131.672L48.9883 140.333L48.9883 171.724L71 180.289L71 185.026L1.56737 157.56L1.56737 154.688L71 126.982ZM9.22362 156.315L45.1601 170.24L45.1601 141.816L9.22362 155.933L9.22362 156.315ZM71 65.5176L71 70.6855L42.959 88.0078C43.1185 89.3796 43.1982 90.7034 43.1982 91.9795L43.1982 109.541L71 109.541L71 113.943L1.95018 113.943L1.95018 92.4102C1.95018 87.7526 2.79555 83.6852 4.48631 80.208C6.17706 76.7308 8.60154 74.0671 11.7597 72.2168C14.886 70.3346 18.5547 69.3936 22.7656 69.3936C27.5827 69.3936 31.666 70.6377 35.0156 73.126C38.3652 75.5824 40.7099 79.0277 42.0498 83.4619L71 65.5176ZM39.4179 92.123C39.4179 88.4225 38.748 85.2005 37.4082 82.457C36.0683 79.6816 34.1702 77.5443 31.7138 76.0449C29.2256 74.5456 26.3066 73.7959 22.957 73.7959C19.4798 73.7959 16.4492 74.5934 13.8652 76.1885C11.2493 77.7516 9.23956 79.9847 7.83592 82.8877C6.43227 85.7907 5.73045 89.1722 5.73045 93.0322L5.73045 109.589L39.4179 109.589L39.4179 92.123ZM63.0566 5.10546L1.95017 5.10547L1.95017 0.703123L71 0.70312L71 5.15332L9.79783 45.7314L9.79783 46.0664L71 46.0664L71 50.4687L1.95017 50.4687L1.95017 46.1143L63.0566 5.48828L63.0566 5.10546Z" fill="#292B31"/>
</svg>
